X: 1805
T: Pine Mt Lancers Fig 1
B: australian traditional tunes wiki
M:6/8
L:1/8
R: Jig
Q: 3/8=100
K:G
V:1 
|:"G"G2G GFG|B2G GFG|"D7"A2F A2F|A2F cBA|
"G"G2G GFG|B2G GFG|"D7"A2F A2F|cBA "G"G3|
"G"G2G GFG|B2G GFG|"D7"A2F D2F|A2F cBA|
"G"G2G GFG|B2G GFG|"D7"A2F D2F|cBA "G"G3:|
|:"D"A2d f2g|f3 "A"e2B|"Bm"d3 "A"c2B|"G"B3 "A"A2G|
"Em"G2B e2g|"A7"a3 g2f|"Em"e2^d e2f|"A7"e3 c2B|
"D"A2d f2g|f3 "A"e2B|"Bm"d3 "A"c2B|"G"B3 "A"A2G|
"Em"G2B e2g|"A7"a3 g2d|"D"d2c "A7"f2e|"D"d3-d3:|
% abcbook-tune_id 6342d53a787ee1ae7b41eab5


% abcbook-boost 0
% abcbook-tablature 
% abcbook-transpose 
% abcbook-lastupdated 1665324385035
% abcbook-soundfonts 
% abcbook-repeats 1
% NFF Book 2018

